X:1
T:Title
%%score { ( 1 4 ) | ( 2 3 ) }
L:1/8
M:6/8
K:G
V:1 treble nm="Grand Piano"
V:4 treble 
V:2 bass 
V:3 bass 
V:1
 z3 z2[Q:1/4=100] G | [DG][CA][B,B] [CE]>[CF][DG] | A2 F D2 [DE] | [^CG][F,CF]>[G,CE] [B,CG]FE | %4
[M:5/8] A-A- A3 |[M:1/8] c |[M:3/4] BF [DG][Cc] [D^G][EA] | d2 z2 z2 | %8
 BD- D/[DGB]/[EFc] [DFB][CFA] |[M:5/8] [G,B,DG]-[G,B,DG]- [G,B,DG]3 |] %10
V:2
 z3 z2 [D,B,] | [B,,G,][A,,F,][G,,G,] [C,G,]>[A,,A,][B,,G,] | D3 z3 | %3
 [A,,E,]A,,>A,, A,,[A,^C][A,C] |[M:5/8] [F,A,D]2 [E,G,] [D,F,]2 |[M:1/8] [F,A,D] | %6
[M:3/4] [G,D][D,A,D] [B,,G,][A,,E,] [B,,E,][C,E,] | B,,2- [B,,B,] [E,B,E]2 [^D,G,^C] | %8
 [D,G,D][D,B,]- [D,B,]/D,/D, D,D, |[M:5/8] G,,-G,,- G,,3 |] %10
V:3
 x6 | x6 | [D,F,]2 [C,A,] [B,,G,]2 [_B,,G,] | x6 |[M:5/8] x5 |[M:1/8] x |[M:3/4] x6 | F,2 z2 z2 | %8
 x6 |[M:5/8] x5 |] %10
V:4
 x6 | x6 | x6 | x6 |[M:5/8] z2 ^C D2 |[M:1/8] x |[M:3/4] x6 | D2- [DB] G2 A | x6 |[M:5/8] x5 |] %10

